src/svg/uf10d-quote-left.svg

<!-- Generated by IcoMoon.io -->
<svg version="1.1" xmlns="http://www.w3.org/2000/svg" width="30" height="32" viewBox="0 0 30 32">
<path d="M13.714 17.143v6.857c0 1.893-1.536 3.429-3.429 3.429h-6.857c-1.893 0-3.429-1.536-3.429-3.429v-12.571c0-5.036 4.107-9.143 9.143-9.143h1.143c0.625 0 1.143 0.518 1.143 1.143v2.286c0 0.625-0.518 1.143-1.143 1.143h-1.143c-2.518 0-4.571 2.054-4.571 4.571v0.571c0 0.946 0.768 1.714 1.714 1.714h4c1.893 0 3.429 1.536 3.429 3.429zM29.714 17.143v6.857c0 1.893-1.536 3.429-3.429 3.429h-6.857c-1.893 0-3.429-1.536-3.429-3.429v-12.571c0-5.036 4.107-9.143 9.143-9.143h1.143c0.625 0 1.143 0.518 1.143 1.143v2.286c0 0.625-0.518 1.143-1.143 1.143h-1.143c-2.518 0-4.571 2.054-4.571 4.571v0.571c0 0.946 0.768 1.714 1.714 1.714h4c1.893 0 3.429 1.536 3.429 3.429z"></path>
</svg>

<svg xmlns="http://www.w3.org/2000/svg" width="30" height="32"><path d="M13.714 17.143V24a3.43 3.43 0 0 1-3.429 3.429H3.428A3.43 3.43 0 0 1-.001 24V11.429c0-5.036 4.107-9.143 9.143-9.143h1.143c.625 0 1.143.518 1.143 1.143v2.286c0 .625-.518 1.143-1.143 1.143H9.142a4.58 4.58 0 0 0-4.571 4.571V12c0 .946.768 1.714 1.714 1.714h4a3.43 3.43 0 0 1 3.429 3.429zm16 0V24a3.43 3.43 0 0 1-3.429 3.429h-6.857A3.43 3.43 0 0 1 15.999 24V11.429c0-5.036 4.107-9.143 9.143-9.143h1.143c.625 0 1.143.518 1.143 1.143v2.286c0 .625-.518 1.143-1.143 1.143h-1.143a4.58 4.58 0 0 0-4.571 4.571V12c0 .946.768 1.714 1.714 1.714h4a3.43 3.43 0 0 1 3.429 3.429z"/></svg>
